symbols/web/free_cancellation/materialsymbolsrounded/free_cancellation_wght700grad200_20px.svg

<svg xmlns="http://www.w3.org/2000/svg" height="20" width="20"><path d="m13.188 19.188-1.771-1.792q-.438-.417-.427-1.011.01-.593.448-1.031.416-.416 1.01-.416.594 0 1.01.416l.75.771 2.5-2.521q.438-.458 1.052-.458.615 0 1.032.458.458.417.448 1.042-.011.625-.469 1.021l-3.521 3.521q-.458.458-1.042.458-.583 0-1.02-.458Zm-4.917-4.959-.333.313q-.417.437-1 .427-.584-.011-1-.448-.438-.417-.438-1.011 0-.593.438-1.01l.291-.312-.312-.334q-.438-.416-.427-1.01.01-.594.448-1.011.416-.437 1.01-.437.594 0 1.01.437l.313.313.333-.313q.417-.437 1.011-.437.593 0 1.01.437.437.417.437 1.011 0 .594-.437 1.01l-.313.334.313.312q.437.417.437 1.01 0 .594-.437 1.011-.417.437-1.01.437-.594 0-1.011-.437Zm-3.813 5.063q-1.229 0-2.073-.854-.843-.855-.843-2.063V5.354q0-1.229.843-2.073.844-.843 2.073-.843h.146v-.5q0-.48.375-.855t.854-.375q.5 0 .855.375.354.375.354.855v.5h5.916v-.5q0-.48.365-.855t.865-.375q.479 0 .843.375.365.375.365.855v.5h.146q1.229 0 2.073.843.843.844.843 2.073v4.021l-2.916 2.937V8.208H4.458v8.167h3.396l2.917 2.917Zm0-13.042h11.084v-.896H4.458Zm0 0v-.896.896Z"/></svg>

<svg xmlns="http://www.w3.org/2000/svg" height="20" width="20"><path d="M13.188 19.188 11.417 17.396Q10.979 16.979 10.99 16.385Q11 15.792 11.438 15.354Q11.854 14.938 12.448 14.938Q13.042 14.938 13.458 15.354L14.208 16.125L16.708 13.604Q17.146 13.146 17.76 13.146Q18.375 13.146 18.792 13.604Q19.25 14.021 19.24 14.646Q19.229 15.271 18.771 15.667L15.25 19.188Q14.792 19.646 14.208 19.646Q13.625 19.646 13.188 19.188ZM8.271 14.229 7.938 14.542Q7.521 14.979 6.938 14.969Q6.354 14.958 5.938 14.521Q5.5 14.104 5.5 13.5Q5.5 12.896 5.938 12.479L6.229 12.188L5.917 11.854Q5.479 11.438 5.49 10.833Q5.5 10.229 5.938 9.812Q6.354 9.375 6.948 9.375Q7.542 9.375 7.958 9.812L8.271 10.125L8.604 9.812Q9.021 9.375 9.615 9.375Q10.208 9.375 10.625 9.812Q11.062 10.229 11.062 10.833Q11.062 11.438 10.625 11.854L10.312 12.188L10.625 12.5Q11.062 12.917 11.062 13.51Q11.062 14.104 10.625 14.521Q10.208 14.958 9.615 14.958Q9.021 14.958 8.604 14.521ZM4.458 19.292Q3.229 19.292 2.385 18.438Q1.542 17.583 1.542 16.375V5.354Q1.542 4.125 2.385 3.281Q3.229 2.438 4.458 2.438H4.604V1.938Q4.604 1.458 4.979 1.083Q5.354 0.708 5.833 0.708Q6.333 0.708 6.688 1.083Q7.042 1.458 7.042 1.938V2.438H12.958V1.938Q12.958 1.458 13.323 1.083Q13.688 0.708 14.188 0.708Q14.667 0.708 15.031 1.083Q15.396 1.458 15.396 1.938V2.438H15.542Q16.771 2.438 17.615 3.281Q18.458 4.125 18.458 5.354V9.375L15.542 12.312V8.208H4.458V16.375Q4.458 16.375 4.458 16.375Q4.458 16.375 4.458 16.375H7.854L10.771 19.292ZM4.458 6.25H15.542V5.354Q15.542 5.354 15.542 5.354Q15.542 5.354 15.542 5.354H4.458Q4.458 5.354 4.458 5.354Q4.458 5.354 4.458 5.354ZM4.458 6.25V5.354Q4.458 5.354 4.458 5.354Q4.458 5.354 4.458 5.354Q4.458 5.354 4.458 5.354Q4.458 5.354 4.458 5.354V6.25Z"/></svg>
